X:40
T:Untitled. RDO.40
M:C|
L:1/8
Q:1/2=75
S:Robert D. Owen MS,Indiana,1826.
R:.misc
O:Indiana,USA
A:New Harmony
Z:vmp.Chris Partington
W:a
K:G
DE|G3A B3e|dBde dBAG|B2A2A2(GA)|B2A2A2GE|!
DEGAB3e|dBAB GABd|e2E2E2DE|G2E2E2:|!
|:de|g3a gaba|gdeg dBAG|B2A2A2GA|B2A2A2ga|!
b/a/g ab gdeg|dABF ABcd|e2E2E2DE|G2E2E2:|

